img/subtract-19.svg

<svg fill="none" height="21" viewBox="0 0 21 21" width="21" xmlns="http://www.w3.org/2000/svg"><path clip-rule="evenodd" d="m8.03719.702613c-.19719-.052838-.4076.00354-.55195.147896l-6.846001 6.845991c-.144357.14436-.200735.35477-.147897.55196l2.505808 9.35184c.05284.1972.20686.3512.40406.404l9.35179 2.5058c.1972.0529.4076-.0035.552-.1479l6.846-6.846c.1443-.1443.2007-.3547.1479-.5519l-2.5058-9.35182c-.0529-.19719-.2069-.35122-.4041-.40406zm8.25751 8.356757c-.8985-3.35321-4.3452-5.34316-7.69839-4.44467-3.35321.89849-5.34316 4.34518-4.44467 7.6984.89849 3.3532 4.34518 5.3432 7.69836 4.4447 3.3533-.8985 5.3432-4.3452 4.4447-7.69843z" fill="#f55c5c" fill-rule="evenodd"/></svg>

<svg width="21" height="21" viewBox="0 0 21 21" fill="none" xmlns="http://www.w3.org/2000/svg">
<path fill-rule="evenodd" clip-rule="evenodd" d="M8.03719 0.702613C7.84 0.649775 7.62959 0.706153 7.48524 0.850509L0.639239 7.6965C0.494882 7.84086 0.438504 8.05127 0.491342 8.24846L2.99715 17.6003C3.04999 17.7975 3.20401 17.9515 3.40121 18.0043L12.753 20.5101C12.9502 20.563 13.1606 20.5066 13.305 20.3622L20.151 13.5162C20.2953 13.3719 20.3517 13.1615 20.2989 12.9643L17.7931 3.61248C17.7402 3.41529 17.5862 3.26126 17.389 3.20842L8.03719 0.702613ZM16.2947 9.05937C15.3962 5.70616 11.9495 3.71621 8.59631 4.6147C5.2431 5.51319 3.25315 8.95988 4.15164 12.3131C5.05013 15.6663 8.49682 17.6563 11.85 16.7578C15.2033 15.8593 17.1932 12.4126 16.2947 9.05937Z" fill="#F55C5C"/>
</svg>
